; generated by Slic3r 1.2.9 on 2019-07-19 at 15:42:40

; external perimeters extrusion width = 0.50mm
; perimeters extrusion width = 0.85mm
; infill extrusion width = 1.98mm
; solid infill extrusion width = 0.85mm
; top infill extrusion width = 0.85mm

M107
M190 S60 ; set bed temperature
M104 S200 ; set temperature

M109 S200 ; wait for temperature to be reached
G21 ; set units to millimeters
G90 ; use absolute coordinates
M82 ; use absolute distances for extrusion
G92 E0
G1 Z0.350 F4200.000
G1 E-2.00000 F2400.00000
G92 E0
G1 Z0.550 F4200.000
G1 X42.915 Y36.253 F4200.000
G1 Z0.350 F4200.000
G1 E2.00000 F2400.00000
G1 X44.668 Y34.774 E2.63866 F1800.000
G1 X46.820 Y33.981 E3.27732
G1 X48.000 Y33.875 E3.60718
G1 X78.000 Y33.875 E11.96134
G1 X80.259 Y34.272 E12.60000
G1 X82.247 Y35.415 E13.23866 F1800.000
G1 X83.726 Y37.168 E13.87732
G1 X84.519 Y39.320 E14.51598
G1 X84.625 Y40.500 E14.84584
G1 X84.625 Y70.500 E23.19999
G1 X84.228 Y72.759 E23.83866
G1 X83.085 Y74.747 E24.47732
G1 X81.332 Y76.226 E25.11598
G1 X79.180 Y77.019 E25.75464
G1 X78.000 Y77.125 E26.08450
G1 X48.000 Y77.125 E34.43865
G1 X45.741 Y76.728 E35.07731
G1 X43.753 Y75.585 E35.71597
G1 X42.274 Y73.832 E36.35464
G1 X41.481 Y71.680 E36.99330
G1 X41.375 Y70.500 E37.32315
G1 X41.375 Y40.500 E45.67731
G1 X41.772 Y38.241 E46.31597
G1 X42.878 Y36.318 E46.93375
G1 E44.93375 F2400.00000
G92 E0
G1 Z0.550 F4200.000
G1 X77.650 Y70.150 F4200.000
G1 Z0.350 F4200.000
G1 E2.00000 F2400.00000
G1 X48.350 Y70.150 E10.15922 F1800.000
G1 X48.350 Y40.850 E18.31845
G1 X77.650 Y40.850 E26.47767
G1 X77.650 Y70.075 E34.61601
G1 X77.271 Y41.534 F4200.000
G1 X76.966 Y41.229 E34.73790 F1800.000
G1 X76.070 Y41.229 E34.99113
G1 X77.271 Y42.430 E35.47113
G1 X77.271 Y43.327 E35.72435
G1 X75.173 Y41.229 E36.56246
G1 X74.277 Y41.229 E36.81568
G1 X77.271 Y44.223 E38.01190
G1 X77.271 Y45.119 E38.26513
G1 X73.381 Y41.229 E39.81946
G1 X72.484 Y41.229 E40.07268
G1 X77.271 Y46.016 E41.98512
G1 X77.271 Y46.912 E42.23834
G1 X71.588 Y41.229 E44.50890
G1 X70.691 Y41.229 E44.76212
G1 X77.271 Y47.809 E47.39078
G1 X77.271 Y48.705 E47.64400
G1 X69.795 Y41.229 E50.63078
G1 X68.898 Y41.229 E50.88400
G1 X77.271 Y49.602 E54.22888
G1 X77.271 Y50.498 E54.48211
G1 X68.002 Y41.229 E58.18510
G1 X67.106 Y41.229 E58.43832
G1 X77.271 Y51.394 E62.49943
G1 X77.271 Y52.291 E62.75265
G1 X66.209 Y41.229 E67.17187
G1 X65.313 Y41.229 E67.42509
G1 X77.271 Y53.187 E72.20242
G1 X77.271 Y54.084 E72.45564
G1 X64.416 Y41.229 E77.59108
G1 X63.520 Y41.229 E77.84430
G1 X77.271 Y54.980 E83.33785
G1 X77.271 Y55.877 E83.59107
G1 X62.623 Y41.229 E89.44273
G1 X61.727 Y41.229 E89.69595
G1 X77.271 Y56.773 E95.90572
G1 X77.271 Y57.670 E96.15894
G1 X60.830 Y41.229 E102.72682
G1 X59.934 Y41.229 E102.98004
G1 X77.271 Y58.566 E109.90603
G1 X77.271 Y59.462 E110.15925
G1 X59.038 Y41.229 E117.44335
G1 X58.141 Y41.229 E117.69657
G1 X77.271 Y60.359 E125.33878
G1 X77.271 Y61.255 E125.59201
G1 X57.245 Y41.229 E133.59233
G1 X56.348 Y41.229 E133.84555
G1 X77.271 Y62.152 E142.20398
G1 X77.271 Y63.048 E142.45720
G1 X55.452 Y41.229 E151.17375
G1 X54.555 Y41.229 E151.42697
G1 X77.271 Y63.945 E160.50162
G1 X77.271 Y64.841 E160.75484
G1 X53.659 Y41.229 E170.18761
G1 X52.763 Y41.229 E170.44083
G1 X77.271 Y65.737 E180.23170
G1 X77.271 Y66.634 E180.48492
G1 X51.866 Y41.229 E190.63391
G1 X50.970 Y41.229 E190.88713
G1 X77.271 Y67.530 E201.39422
G1 X77.271 Y68.427 E201.64745
G1 X50.073 Y41.229 E212.51265
G1 X49.177 Y41.229 E212.76588
G1 X77.271 Y69.323 E223.98919
G1 X76.823 Y69.771 E224.16825
G1 X48.729 Y41.677 E235.39155
G1 X48.729 Y42.573 E235.64477
G1 X75.927 Y69.771 E246.50996
G1 X75.030 Y69.771 E246.76318
G1 X48.729 Y43.470 E257.27027
G1 X48.729 Y44.366 E257.52349
G1 X74.134 Y69.771 E267.67246
G1 X73.237 Y69.771 E267.92568
G1 X48.729 Y45.263 E277.71654
G1 X48.729 Y46.159 E277.96976
G1 X72.341 Y69.771 E287.40251
G1 X71.445 Y69.771 E287.65574
G1 X48.729 Y47.055 E296.73038
G1 X48.729 Y47.952 E296.98360
G1 X70.548 Y69.771 E305.70013
G1 X69.652 Y69.771 E305.95335
G1 X48.729 Y48.848 E314.31177
G1 X48.729 Y49.745 E314.56499
G1 X68.755 Y69.771 E322.56530
G1 X67.859 Y69.771 E322.81852
G1 X48.729 Y50.641 E330.46072
G1 X48.729 Y51.538 E330.71394
G1 X66.962 Y69.771 E337.99803
G1 X66.066 Y69.771 E338.25125
G1 X48.729 Y52.434 E345.17722
G1 X48.729 Y53.330 E345.43045
G1 X65.170 Y69.771 E351.99831
G1 X64.273 Y69.771 E352.25153
G1 X48.729 Y54.227 E358.46129
G1 X48.729 Y55.123 E358.71451
G1 X63.377 Y69.771 E364.56616
G1 X62.480 Y69.771 E364.81938
G1 X48.729 Y56.020 E370.31291
G1 X48.729 Y56.916 E370.56613
G1 X61.584 Y69.771 E375.70156
G1 X60.687 Y69.771 E375.95478
G1 X48.729 Y57.813 E380.73209
G1 X48.729 Y58.709 E380.98532
G1 X59.791 Y69.771 E385.40452
G1 X58.894 Y69.771 E385.65774
G1 X48.729 Y59.606 E389.71883
G1 X48.729 Y60.502 E389.97205
G1 X57.998 Y69.771 E393.67503
G1 X57.102 Y69.771 E393.92826
G1 X48.729 Y61.398 E397.27313
G1 X48.729 Y62.295 E397.52635
G1 X56.205 Y69.771 E400.51311
G1 X55.309 Y69.771 E400.76633
G1 X48.729 Y63.191 E403.39498
G1 X48.729 Y64.088 E403.64820
G1 X54.412 Y69.771 E405.91874
G1 X53.516 Y69.771 E406.17196
G1 X48.729 Y64.984 E408.08439
G1 X48.729 Y65.881 E408.33762
G1 X52.619 Y69.771 E409.89193
G1 X51.723 Y69.771 E410.14516
G1 X48.729 Y66.777 E411.34136
G1 X48.729 Y67.673 E411.59458
G1 X50.827 Y69.771 E412.43268
G1 X49.930 Y69.771 E412.68590
G1 X48.729 Y68.570 E413.16589
G1 X48.729 Y69.466 E413.41911
G1 X49.034 Y69.771 E413.54099
G1 Z0.450 F4200.000
G1 E411.54099 F2400.00000
G92 E0
G1 Z0.650 F4200.000
G1 X77.750 Y70.250 F4200.000
G1 Z0.450 F4200.000
G1 E2.00000 F2400.00000
G1 X48.250 Y70.250 E3.79742 F2100.000
G1 X48.250 Y40.750 E5.59485
G1 X77.750 Y40.750 E7.39227
G1 X77.750 Y70.175 E9.18512
G1 X76.924 Y69.816 F4200.000
G1 X77.316 Y69.424 E9.24378 F1200.000
G1 X77.316 Y68.248 E9.36843
G1 X75.748 Y69.816 E9.60338
G1 X74.571 Y69.816 E9.72804
G1 X77.316 Y67.071 E10.13927
G1 X77.316 Y65.894 E10.26393
G1 X73.394 Y69.816 E10.85145
G1 X72.218 Y69.816 E10.97611
G1 X77.316 Y64.718 E11.73992
G1 X77.316 Y63.541 E11.86458
G1 X71.041 Y69.816 E12.80468
G1 X69.864 Y69.816 E12.92934
G1 X77.316 Y62.364 E14.04573
G1 X77.316 Y61.188 E14.17039
G1 X68.688 Y69.816 E15.46307
G1 X67.511 Y69.816 E15.58773
G1 X77.316 Y60.011 E17.05670
G1 X77.316 Y58.834 E17.18136
G1 X66.334 Y69.816 E18.82662
G1 X65.158 Y69.816 E18.95127
G1 X77.316 Y57.658 E20.77283
G1 X77.316 Y56.481 E20.89748
G1 X63.981 Y69.816 E22.89532
G1 X62.804 Y69.816 E23.01998
G1 X77.316 Y55.304 E25.19411
G1 X77.316 Y54.128 E25.31876
G1 X61.628 Y69.816 E27.66918
G1 X60.451 Y69.816 E27.79384
G1 X77.316 Y52.951 E30.32055
G1 X77.316 Y51.774 E30.44521
G1 X59.274 Y69.816 E33.14820
G1 X58.098 Y69.816 E33.27286
G1 X77.316 Y50.598 E36.15215
G1 X77.316 Y49.421 E36.27680
G1 X56.921 Y69.816 E39.33238
G1 X55.744 Y69.816 E39.45704
G1 X77.316 Y48.244 E42.68891
G1 X77.316 Y47.067 E42.81356
G1 X54.567 Y69.816 E46.22172
G1 X53.391 Y69.816 E46.34637
G1 X77.316 Y45.891 E49.93082
G1 X77.316 Y44.714 E50.05548
G1 X52.214 Y69.816 E53.81621
G1 X51.037 Y69.816 E53.94087
G1 X77.316 Y43.537 E57.87789
G1 X77.316 Y42.361 E58.00255
G1 X49.861 Y69.816 E62.11586
G1 X48.704 Y69.796 E62.23842
G1 X77.296 Y41.204 E66.52202
G1 X76.139 Y41.184 E66.64458
G1 X48.684 Y68.639 E70.75788
G1 X48.684 Y67.463 E70.88254
G1 X74.963 Y41.184 E74.81956
G1 X73.786 Y41.184 E74.94421
G1 X48.684 Y66.286 E78.70494
G1 X48.684 Y65.109 E78.82959
G1 X72.609 Y41.184 E82.41403
G1 X71.432 Y41.184 E82.53869
G1 X48.684 Y63.932 E85.94683
G1 X48.684 Y62.756 E86.07149
G1 X70.256 Y41.184 E89.30335
G1 X69.079 Y41.184 E89.42800
G1 X48.684 Y61.579 E92.48357
G1 X48.684 Y60.402 E92.60823
G1 X67.902 Y41.184 E95.48751
G1 X66.726 Y41.184 E95.61216
G1 X48.684 Y59.226 E98.31515
G1 X48.684 Y58.049 E98.43981
G1 X65.549 Y41.184 E100.96651
G1 X64.372 Y41.184 E101.09116
G1 X48.684 Y56.872 E103.44158
G1 X48.684 Y55.696 E103.56623
G1 X63.196 Y41.184 E105.74035
G1 X62.019 Y41.184 E105.86501
G1 X48.684 Y54.519 E107.86284
G1 X48.684 Y53.342 E107.98750
G1 X60.842 Y41.184 E109.80904
G1 X59.666 Y41.184 E109.93369
G1 X48.684 Y52.166 E111.57895
G1 X48.684 Y50.989 E111.70360
G1 X58.489 Y41.184 E113.17257
G1 X57.312 Y41.184 E113.29722
G1 X48.684 Y49.812 E114.58990
G1 X48.684 Y48.636 E114.71455
G1 X56.136 Y41.184 E115.83094
G1 X54.959 Y41.184 E115.95559
G1 X48.684 Y47.459 E116.89569
G1 X48.684 Y46.282 E117.02034
G1 X53.782 Y41.184 E117.78415
G1 X52.606 Y41.184 E117.90881
G1 X48.684 Y45.106 E118.49632
G1 X48.684 Y43.929 E118.62098
G1 X51.429 Y41.184 E119.03221
G1 X50.252 Y41.184 E119.15686
G1 X48.684 Y42.752 E119.39180
G1 X48.684 Y41.576 E119.51646
G1 X49.076 Y41.184 E119.57510
G1 Z0.550 F4200.000
G1 E117.57510 F2400.00000
G92 E0
G1 Z0.750 F4200.000
G1 X77.750 Y70.250 F4200.000
G1 Z0.550 F4200.000
G1 E2.00000 F2400.00000
G1 X48.250 Y70.250 E3.79742 F2100.000
G1 X48.250 Y40.750 E5.59485
G1 X77.750 Y40.750 E7.39227
G1 X77.750 Y70.175 E9.18512
G1 E7.18512 F2400.00000
G92 E0
G1 Z0.750 F4200.000
G1 X77.316 Y41.576 F4200.000
G1 Z0.550 F4200.000
G1 E2.00000 F2400.00000
G1 X76.924 Y41.184 E2.05866 F1200.000
G1 X75.748 Y41.184 E2.18331
G1 X77.316 Y42.752 E2.41826
G1 X77.316 Y43.929 E2.54292
G1 X74.571 Y41.184 E2.95415
G1 X73.394 Y41.184 E3.07881
G1 X77.316 Y45.106 E3.66633
G1 X77.316 Y46.282 E3.79099
G1 X72.218 Y41.184 E4.55480
G1 X71.041 Y41.184 E4.67946
G1 X77.316 Y47.459 E5.61956
G1 X77.316 Y48.636 E5.74422
G1 X69.864 Y41.184 E6.86061
G1 X68.688 Y41.184 E6.98527
G1 X77.316 Y49.812 E8.27795
G1 X77.316 Y50.989 E8.40261
G1 X67.511 Y41.184 E9.87158
G1 X66.334 Y41.184 E9.99623
G1 X77.316 Y52.166 E11.64150
G1 X77.316 Y53.342 E11.76615
G1 X65.158 Y41.184 E13.58770
G1 X63.981 Y41.184 E13.71236
G1 X77.316 Y54.519 E15.71020
G1 X77.316 Y55.696 E15.83486
G1 X62.804 Y41.184 E18.00899
G1 X61.628 Y41.184 E18.13364
G1 X77.316 Y56.872 E20.48406
G1 X77.316 Y58.049 E20.60872
G1 X60.451 Y41.184 E23.13543
G1 X59.274 Y41.184 E23.26008
G1 X77.316 Y59.226 E25.96308
G1 X77.316 Y60.402 E26.08774
G1 X58.098 Y41.184 E28.96703
G1 X56.921 Y41.184 E29.09168
G1 X77.316 Y61.579 E32.14726
G1 X77.316 Y62.756 E32.27191
G1 X55.744 Y41.184 E35.50378
G1 X54.567 Y41.184 E35.62844
G1 X77.316 Y63.933 E39.03659
G1 X77.316 Y65.109 E39.16125
G1 X53.391 Y41.184 E42.74569
G1 X52.214 Y41.184 E42.87035
G1 X77.316 Y66.286 E46.63109
G1 X77.316 Y67.463 E46.75574
G1 X51.037 Y41.184 E50.69277
G1 X49.861 Y41.184 E50.81742
G1 X77.316 Y68.639 E54.93074
G1 X77.296 Y69.796 E55.05329
G1 X48.704 Y41.204 E59.33690
G1 X48.684 Y42.361 E59.45945
G1 X76.139 Y69.816 E63.57276
G1 X74.963 Y69.816 E63.69741
G1 X48.684 Y43.537 E67.63443
G1 X48.684 Y44.714 E67.75909
G1 X73.786 Y69.816 E71.51981
G1 X72.609 Y69.816 E71.64447
G1 X48.684 Y45.891 E75.22891
G1 X48.684 Y47.068 E75.35356
G1 X71.432 Y69.816 E78.76171
G1 X70.256 Y69.816 E78.88636
G1 X48.684 Y48.244 E82.11822
G1 X48.684 Y49.421 E82.24288
G1 X69.079 Y69.816 E85.29845
G1 X67.902 Y69.816 E85.42310
G1 X48.684 Y50.598 E88.30238
G1 X48.684 Y51.774 E88.42704
G1 X66.726 Y69.816 E91.13003
G1 X65.549 Y69.816 E91.25468
G1 X48.684 Y52.951 E93.78138
G1 X48.684 Y54.128 E93.90604
G1 X64.372 Y69.816 E96.25645
G1 X63.196 Y69.816 E96.38111
G1 X48.684 Y55.304 E98.55523
G1 X48.684 Y56.481 E98.67988
G1 X62.019 Y69.816 E100.67772
G1 X60.842 Y69.816 E100.80237
G1 X48.684 Y57.658 E102.62391
G1 X48.684 Y58.834 E102.74857
G1 X59.666 Y69.816 E104.39382
G1 X58.489 Y69.816 E104.51848
G1 X48.684 Y60.011 E105.98744
G1 X48.684 Y61.188 E106.11210
G1 X57.312 Y69.816 E107.40477
G1 X56.136 Y69.816 E107.52943
G1 X48.684 Y62.364 E108.64581
G1 X48.684 Y63.541 E108.77047
G1 X54.959 Y69.816 E109.71056
G1 X53.782 Y69.816 E109.83522
G1 X48.684 Y64.718 E110.59903
G1 X48.684 Y65.894 E110.72368
G1 X52.606 Y69.816 E111.31120
G1 X51.429 Y69.816 E111.43585
G1 X48.684 Y67.071 E111.84708
G1 X48.684 Y68.248 E111.97174
G1 X50.252 Y69.816 E112.20668
G1 X49.076 Y69.816 E112.33133
G1 X48.684 Y69.424 E112.38998
M106 S102
G1 Z0.650 F4200.000
G1 E110.38998 F2400.00000
G92 E0
G1 Z0.850 F4200.000
G1 X77.750 Y70.250 F4200.000
G1 Z0.650 F4200.000
G1 E2.00000 F2400.00000
G1 X48.250 Y70.250 E3.79742 F2100.000
G1 X48.250 Y40.750 E5.59485
G1 X77.750 Y40.750 E7.39227
G1 X77.750 Y70.175 E9.18512
G1 X76.924 Y69.816 F4200.000
G1 X77.316 Y69.424 E9.24378 F1200.000
G1 X77.316 Y68.248 E9.36843
G1 X75.748 Y69.816 E9.60338
G1 X74.571 Y69.816 E9.72804
G1 X77.316 Y67.071 E10.13927
G1 X77.316 Y65.894 E10.26393
G1 X73.394 Y69.816 E10.85145
G1 X72.218 Y69.816 E10.97611
G1 X77.316 Y64.718 E11.73992
G1 X77.316 Y63.541 E11.86458
G1 X71.041 Y69.816 E12.80468
G1 X69.864 Y69.816 E12.92934
G1 X77.316 Y62.364 E14.04573
G1 X77.316 Y61.188 E14.17039
G1 X68.688 Y69.816 E15.46307
G1 X67.511 Y69.816 E15.58773
G1 X77.316 Y60.011 E17.05670
G1 X77.316 Y58.834 E17.18136
G1 X66.334 Y69.816 E18.82662
G1 X65.158 Y69.816 E18.95127
G1 X77.316 Y57.658 E20.77283
G1 X77.316 Y56.481 E20.89748
G1 X63.981 Y69.816 E22.89532
G1 X62.804 Y69.816 E23.01998
G1 X77.316 Y55.304 E25.19411
G1 X77.316 Y54.128 E25.31876
G1 X61.628 Y69.816 E27.66918
G1 X60.451 Y69.816 E27.79384
G1 X77.316 Y52.951 E30.32055
G1 X77.316 Y51.774 E30.44521
G1 X59.274 Y69.816 E33.14820
G1 X58.098 Y69.816 E33.27286
G1 X77.316 Y50.598 E36.15215
G1 X77.316 Y49.421 E36.27680
G1 X56.921 Y69.816 E39.33238
G1 X55.744 Y69.816 E39.45704
G1 X77.316 Y48.244 E42.68891
G1 X77.316 Y47.067 E42.81356
G1 X54.567 Y69.816 E46.22172
G1 X53.391 Y69.816 E46.34637
G1 X77.316 Y45.891 E49.93082
G1 X77.316 Y44.714 E50.05548
G1 X52.214 Y69.816 E53.81621
G1 X51.037 Y69.816 E53.94087
G1 X77.316 Y43.537 E57.87789
G1 X77.316 Y42.361 E58.00255
G1 X49.861 Y69.816 E62.11586
G1 X48.704 Y69.796 E62.23842
G1 X77.296 Y41.204 E66.52202
G1 X76.139 Y41.184 E66.64458
G1 X48.684 Y68.639 E70.75788
G1 X48.684 Y67.463 E70.88254
G1 X74.963 Y41.184 E74.81956
G1 X73.786 Y41.184 E74.94421
G1 X48.684 Y66.286 E78.70494
G1 X48.684 Y65.109 E78.82959
G1 X72.609 Y41.184 E82.41403
G1 X71.432 Y41.184 E82.53869
G1 X48.684 Y63.932 E85.94683
G1 X48.684 Y62.756 E86.07149
G1 X70.256 Y41.184 E89.30335
G1 X69.079 Y41.184 E89.42800
G1 X48.684 Y61.579 E92.48357
G1 X48.684 Y60.402 E92.60823
G1 X67.902 Y41.184 E95.48751
G1 X66.726 Y41.184 E95.61216
G1 X48.684 Y59.226 E98.31515
G1 X48.684 Y58.049 E98.43981
G1 X65.549 Y41.184 E100.96651
G1 X64.372 Y41.184 E101.09116
G1 X48.684 Y56.872 E103.44158
G1 X48.684 Y55.696 E103.56623
G1 X63.196 Y41.184 E105.74035
G1 X62.019 Y41.184 E105.86501
G1 X48.684 Y54.519 E107.86284
G1 X48.684 Y53.342 E107.98750
G1 X60.842 Y41.184 E109.80904
G1 X59.666 Y41.184 E109.93369
G1 X48.684 Y52.166 E111.57895
G1 X48.684 Y50.989 E111.70360
G1 X58.489 Y41.184 E113.17257
G1 X57.312 Y41.184 E113.29722
G1 X48.684 Y49.812 E114.58990
G1 X48.684 Y48.636 E114.71455
G1 X56.136 Y41.184 E115.83094
G1 X54.959 Y41.184 E115.95559
G1 X48.684 Y47.459 E116.89569
G1 X48.684 Y46.282 E117.02034
G1 X53.782 Y41.184 E117.78415
G1 X52.606 Y41.184 E117.90881
G1 X48.684 Y45.106 E118.49632
G1 X48.684 Y43.929 E118.62098
G1 X51.429 Y41.184 E119.03221
G1 X50.252 Y41.184 E119.15686
G1 X48.684 Y42.752 E119.39180
G1 X48.684 Y41.576 E119.51646
G1 X49.076 Y41.184 E119.57510
G1 Z0.750 F4200.000
G1 E117.57510 F2400.00000
G92 E0
G1 Z0.950 F4200.000
G1 X77.750 Y70.250 F4200.000
G1 Z0.750 F4200.000
G1 E2.00000 F2400.00000
G1 X48.250 Y70.250 E3.79742 F2100.000
G1 X48.250 Y40.750 E5.59485
G1 X77.750 Y40.750 E7.39227
G1 X77.750 Y70.175 E9.18512
G1 E7.18512 F2400.00000
G92 E0
G1 Z0.950 F4200.000
G1 X77.316 Y41.576 F4200.000
G1 Z0.750 F4200.000
G1 E2.00000 F2400.00000
G1 X76.924 Y41.184 E2.05866 F1200.000
G1 X75.748 Y41.184 E2.18331
G1 X77.316 Y42.752 E2.41826
G1 X77.316 Y43.929 E2.54292
G1 X74.571 Y41.184 E2.95415
G1 X73.394 Y41.184 E3.07881
G1 X77.316 Y45.106 E3.66633
G1 X77.316 Y46.282 E3.79099
G1 X72.218 Y41.184 E4.55480
G1 X71.041 Y41.184 E4.67946
G1 X77.316 Y47.459 E5.61956
G1 X77.316 Y48.636 E5.74422
G1 X69.864 Y41.184 E6.86061
G1 X68.688 Y41.184 E6.98527
G1 X77.316 Y49.812 E8.27795
G1 X77.316 Y50.989 E8.40261
G1 X67.511 Y41.184 E9.87158
G1 X66.334 Y41.184 E9.99623
G1 X77.316 Y52.166 E11.64150
G1 X77.316 Y53.342 E11.76615
G1 X65.158 Y41.184 E13.58770
G1 X63.981 Y41.184 E13.71236
G1 X77.316 Y54.519 E15.71020
G1 X77.316 Y55.696 E15.83486
